X:403
T: "Gute Lehre"
N: Z1083
O: Europa, Mitteleuropa, Deutschland, Schwaben
R: Romanze, Ballade
M: 6/8
L: 1/16
K: G
d2 | _B3AG2A3GF2 | G6-G4
A2 | _B2B2B2c2c2c2 | d6-d4
d2 | d4=f2f4d2 | d4c2c4z2
_B2B2B2A3GF2 | d4d2d4
c2 | _B3AG2A4F2 | G4z6

